CIRC {X -206.707, Y -1049.668, Z 604.854, A 174.444, B -5.53, C 135.269},{X -207.037, Y -1054.659, Z 599.863, A 174.363, B -5.61, C 135.276} C_VEL
CIRC {X -200.882, Y -1086.288, Z 568.235, A 173.906, B -6.06, C 135.323},{X -183.131, Y -1115.643, Z 538.879, A 173.569, B -6.391, C 135.359} C_VEL
CIRC {X -181.364, Y -1120.552, Z 533.97, A 173.505, B -6.454, C 135.367},{X -182.049, Y -1125.594, Z 528.928, A 173.423, B -6.534, C 135.376} C_VEL
CIRC {X -183.244, Y -1148.287, Z 506.235, A 173.07, B -6.88, C 135.417},{X -181.305, Y -1170.954, Z 483.569, A 172.741, B -7.202, C 135.457} C_VEL
CIRC {X -175, Y -1215.194, Z 439.328, A 172.125, B -7.801, C 135.538},{X -163.916, Y -1258.963, Z 395.559, A 171.562, B -8.348, C 135.617} C_VEL
CIRC {X -145.34, Y -1300.038, Z 354.485, A 171.102, B -8.792, C 135.685},{X -119.312, Y -1339.037, Z 315.485, A 170.735, B -9.147, C 135.743} C_VEL
CIRC {X -93.478, Y -1371.636, Z 282.886, A 170.463, B -9.407, C 135.786},{X -65.262, Y -1403.233, Z 251.289, A 170.229, B -9.632, C 135.825} C_VEL
CIRC {X -53.086, Y -1414.439, Z 240.083, A 170.162, B -9.696, C 135.836},{X -39.284, Y -1424.66, Z 229.862, A 170.12, B -9.736, C 135.844} C_VEL
CIRC {X -37.639, Y -1427.24, Z 227.282, A 170.097, B -9.758, C 135.847},{X -37.385, Y -1430.064, Z 224.458, A 170.061, B -9.792, C 135.854} C_VEL
CIRC {X -33.432, Y -1452.672, Z 201.85, A 169.79, B -10.052, C 135.9},{X -21.452, Y -1473.819, Z 180.704, A 169.596, B -10.237, C 135.934} C_VEL
CIRC {X -18.834, Y -1480.162, Z 174.361, A 169.531, B -10.298, C 135.946},{X -19.529, Y -1486.751, Z 167.771, A 169.441, B -10.384, C 135.962} C_VEL
CIRC {X -20.784, Y -1506.612, Z 147.91, A 169.177, B -10.635, C 136.01},{X -17.021, Y -1526.315, Z 128.207, A 168.951, B -10.849, C 136.052} C_VEL
CIRC {X -2.922, Y -1567.153, Z 87.369, A 168.533, B -11.244, C 136.133},{X 18.358, Y -1606.405, Z 48.117, A 168.194, B -11.563, C 136.2} C_VEL
CIRC {X 35.704, Y -1625.634, Z 28.888, A 168.079, B -11.671, C 136.223},{X 60.082, Y -1640.569, Z 13.954, A 168.065, B -11.684, C 136.226} C_VEL
CIRC {X 84.899, Y -1648, Z 6.522, A 168.145, B -11.609, C 136.209},{X 111.344, Y -1651.669, Z 2.853, A 168.279, B -11.483, C 136.183} C_VEL
CIRC {X 151.036, Y -1653.785, Z 0.738, A 168.518, B -11.258, C 136.135},{X 190.84, Y -1654.004, Z 0.518, A 168.776, B -11.015, C 136.086} C_VEL
CIRC {X 228.644, Y -1653.822, Z 0.7, A 169.021, B -10.783, C 136.039},{X 266.33, Y -1651.71, Z 2.812, A 169.284, B -10.533, C 135.991} C_VEL
CIRC {X 288.07, Y -1648.264, Z 6.258, A 169.46, B -10.366, C 135.959},{X 307.839, Y -1641.002, Z 13.521, A 169.667, B -10.169, C 135.922} C_VEL
CIRC {X 328.629, Y -1621.047, Z 33.476, A 170.028, B -9.824, C 135.859},{X 335.244, Y -1596.707, Z 57.815, A 170.355, B -9.511, C 135.804} C_VEL
CIRC {X 332.639, Y -1577.832, Z 76.69, A 170.564, B -9.31, C 135.77},{X 326.76, Y -1559.328, Z 95.194, A 170.75, B -9.131, C 135.74} C_VEL
CIRC {X 312.823, Y -1524.784, Z 129.738, A 171.085, B -8.809, C 135.688},{X 294.921, Y -1491.166, Z 163.356, A 171.391, B -8.513, C 135.642} C_VEL
CIRC {X 289.969, Y -1483.935, Z 170.587, A 171.451, B -8.455, C 135.633},{X 286.38, Y -1476.313, Z 178.209, A 171.525, B -8.384, C 135.622} C_VEL
CIRC {X 284.197, Y -1455.266, Z 199.257, A 171.774, B -8.142, C 135.586},{X 281.228, Y -1434.267, Z 220.256, A 172.021, B -7.903, C 135.552} C_VEL
CIRC {X 262.488, Y -1378.321, Z 276.202, A 172.625, B -7.315, C 135.472},{X 226.988, Y -1326.596, Z 327.926, A 173.094, B -6.856, C 135.414} C_VEL
CIRC {X 219.612, Y -1319.676, Z 334.846, A 173.143, B -6.809, C 135.408},{X 212.425, Y -1312.658, Z 341.865, A 173.194, B -6.758, C 135.402} C_VEL
CIRC {X 211.423, Y -1309.909, Z 344.613, A 173.225, B -6.728, C 135.399},{X 211.368, Y -1307.071, Z 347.451, A 173.263, B -6.691, C 135.394} C_VEL
CIRC {X 205.588, Y -1252.958, Z 401.564, A 173.958, B -6.009, C 135.317},{X 185.561, Y -1200.571, Z 453.951, A 174.564, B -5.411, C 135.257} C_VEL
CIRC {X 161.023, Y -1160.329, Z 494.193, A 174.991, B -4.99, C 135.218},{X 131.728, Y -1121.711, Z 532.811, A 175.379, B -4.606, C 135.186} C_VEL
CIRC {X 129.733, Y -1118.206, Z 536.317, A 175.419, B -4.567, C 135.183},{X 128.725, Y -1114.494, Z 540.028, A 175.467, B -4.519, C 135.179} C_VEL
CIRC {X 121.959, Y -1070.079, Z 584.443, A 176.077, B -3.914, C 135.134},{X 107.143, Y -1026.653, Z 627.87, A 176.641, B -3.353, C 135.098} C_VEL
CIRC {X 85.752, Y -990.61, Z 663.912, A 177.071, B -2.925, C 135.075},{X 55.398, Y -957.942, Z 696.58, A 177.412, B -2.585, C 135.058} C_VEL
CIRC {X 54.263, Y -954.36, Z 700.162, A 177.461, B -2.536, C 135.056},{X 54.859, Y -950.714, Z 703.809, A 177.521, B -2.476, C 135.054} C_VEL
CIRC {X 58.581, Y -883.836, Z 770.687, A 178.591, B -1.409, C 135.017},{X 41.119, Y -818.055, Z 836.468, A 179.563, B -0.437, C 135.002} C_VEL
CIRC {X 27.821, Y -789.045, Z 865.477, A 179.975, B -0.025, C 135},{X 13.165, Y -760.365, Z 894.157, A -179.617, B 0.383, C 135.001} C_VEL
CIRC {X 12.188, Y -754.62, Z 899.902, A -179.526, B 0.474, C 135.002},{X 12.844, Y -748.853, Z 905.669, A -179.426, B 0.574, C 135.003} C_VEL
CIRC {X 14.909, Y -698.296, Z 956.227, A -178.561, B 1.438, C 135.018},{X 4.913, Y -648.213, Z 1006.309, A -177.742, B 2.256, C 135.044} C_VEL
